polaris-icons/icons/newicons/DomainsMajor.svg

<svg width="20" height="20" viewBox="0 0 20 20" fill="none" xmlns="http://www.w3.org/2000/svg">
<path fill-rule="evenodd" clip-rule="evenodd" d="M2 9.75C2 9.68914 2.00386 9.63015 2.0112 9.57299C2.23313 5.35324 5.72497 2 10 2C14.275 2 17.7669 5.35324 17.9888 9.57299C17.9961 9.63015 18 9.68914 18 9.75C18 9.76968 17.9992 9.78919 17.9978 9.80849C17.9992 9.87215 18 9.93599 18 10C18 10.3737 17.9743 10.7418 17.9246 11.1025C17.868 11.5128 17.4894 11.7996 17.0791 11.743C16.6688 11.6864 16.382 11.3078 16.4386 10.8975C16.4791 10.6045 16.5 10.3049 16.5 10C16.5 9.92954 16.4989 9.85934 16.4967 9.78943C16.473 9.76217 16.4177 9.71096 16.2976 9.63975C16.0295 9.48071 15.5869 9.31876 14.9621 9.17843C14.5268 9.08063 14.0276 8.99859 13.4773 8.93333C13.4824 9.05011 13.4866 9.16754 13.49 9.28555C13.5017 9.6996 13.1756 10.0448 12.7616 10.0566C12.3475 10.0684 12.0023 9.74225 11.9906 9.3282C11.9855 9.15089 11.9785 8.97603 11.9695 8.80384C11.3482 8.76828 10.6876 8.75 10 8.75C9.31239 8.75 8.65179 8.76828 8.03054 8.80384C8.01032 9.19043 8 9.59001 8 10C8 10.7194 8.03177 11.4068 8.09306 12.0481C8.70673 12.0159 9.34629 12 10 12C10.4142 12 10.75 12.3358 10.75 12.75C10.75 13.1642 10.4142 13.5 10 13.5C9.41107 13.5 8.84361 13.5134 8.30483 13.5394C8.40155 14.0342 8.52019 14.4833 8.65913 14.8769C8.87174 15.4791 9.11585 15.9051 9.36171 16.1689C9.59595 16.4202 9.80462 16.5 10 16.5C10.3049 16.5 10.6045 16.4791 10.8975 16.4386C11.3078 16.382 11.6864 16.6688 11.743 17.0791C11.7996 17.4894 11.5128 17.8679 11.1025 17.9246C10.7418 17.9743 10.3737 18 10 18C5.58172 18 2 14.4183 2 10C2 9.93599 2.00075 9.87215 2.00225 9.80849C2.00076 9.78919 2 9.76968 2 9.75ZM7.49621 3.99974C5.76924 4.72122 4.42003 6.16652 3.82772 7.95651C4.10237 7.86446 4.39878 7.78461 4.70909 7.7149C5.27898 7.58688 5.93092 7.48559 6.64207 7.41067C6.76343 6.36987 6.96331 5.42087 7.24467 4.62382C7.32082 4.40811 7.40442 4.19922 7.49621 3.99974ZM6.59743 12.1654C6.53221 11.4735 6.5 10.7462 6.5 10C6.5 9.63942 6.50752 9.28324 6.52266 8.93333C5.97242 8.99859 5.47324 9.08063 5.03786 9.17843C4.41315 9.31876 3.97049 9.48071 3.70235 9.63975C3.5823 9.71096 3.52697 9.76217 3.50335 9.78942C3.50112 9.85934 3.5 9.92954 3.5 10C3.5 10.9377 3.69858 11.8291 4.05597 12.6343C4.75377 12.4256 5.62148 12.2702 6.59743 12.1654ZM4.85399 13.9715C5.39558 13.8384 6.05346 13.7309 6.79967 13.6524C6.91436 14.2798 7.06242 14.8599 7.24467 15.3762C7.32082 15.5919 7.40442 15.8008 7.49621 16.0003C6.44806 15.5624 5.53907 14.8579 4.85399 13.9715ZM12.5032 3.99951C14.2305 4.7209 15.5799 6.16633 16.1723 7.95651C15.8976 7.86447 15.6012 7.78461 15.2909 7.7149C14.721 7.58688 14.0691 7.48559 13.3579 7.41067C13.2242 6.26326 12.9945 5.22388 12.6633 4.37594C12.6137 4.24916 12.5604 4.1233 12.5032 3.99951ZM11.2661 4.92175C11.515 5.55898 11.7067 6.36576 11.8316 7.29427C11.2426 7.26471 10.6288 7.25 10 7.25C9.37118 7.25 8.75737 7.26471 8.16838 7.29427C8.28016 6.46341 8.44568 5.7278 8.65913 5.12313C8.87174 4.52085 9.11585 4.09489 9.36171 3.83111C9.59595 3.5798 9.80462 3.5 10 3.5C10.3435 3.5 10.8256 3.79415 11.2661 4.92175Z" fill="black"/>
<path d="M11.6109 10.9726C11.4294 10.9085 11.2271 10.9544 11.091 11.0906C10.9548 11.2267 10.9089 11.429 10.973 11.6105L13.0944 17.6209C13.1557 17.7947 13.3076 17.9207 13.4897 17.9487C13.6719 17.9768 13.8547 17.9024 13.9654 17.7551L15.1371 16.1974L16.1746 17.2349C16.3699 17.4301 16.6865 17.4301 16.8817 17.2349L17.2353 16.8813C17.4305 16.686 17.4305 16.3695 17.2353 16.1742L16.1978 15.1367L17.7555 13.965C17.9028 13.8543 17.9772 13.6715 17.9491 13.4893C17.9211 13.3072 17.7951 13.1553 17.6213 13.094L11.6109 10.9726Z" fill="black"/>
</svg>

<svg viewBox="0 0 20 20" fill="none" xmlns="http://www.w3.org/2000/svg"><path fill-rule="evenodd" clip-rule="evenodd" d="M2 9.75c0-.06.004-.12.011-.177a8 8 0 0 1 15.978 0 1.396 1.396 0 0 1 .009.235l.002.192c0 .374-.026.742-.075 1.102a.75.75 0 0 1-1.486-.204 6.552 6.552 0 0 0 .058-1.109.824.824 0 0 0-.2-.15c-.268-.158-.71-.32-1.335-.46-.435-.098-.934-.18-1.485-.246.005.117.01.235.013.353a.75.75 0 0 1-1.5.042 22.375 22.375 0 0 0-.02-.524 34.621 34.621 0 0 0-1.97-.054c-.688 0-1.348.018-1.97.054a22.932 22.932 0 0 0 .063 3.244 36.532 36.532 0 0 1 1.907-.048.75.75 0 0 1 0 1.5c-.589 0-1.156.013-1.695.04.097.494.215.943.354 1.337.213.602.457 1.028.703 1.292.234.251.443.331.638.331.305 0 .604-.02.898-.061a.75.75 0 0 1 .204 1.486 8 8 0 0 1-9.1-8.116.76.76 0 0 1-.002-.059Zm5.496-5.75a6.519 6.519 0 0 0-3.668 3.957 8.99 8.99 0 0 1 .881-.242c.57-.128 1.222-.23 1.933-.304.121-1.041.321-1.99.603-2.787.076-.216.16-.425.251-.624Zm-.899 8.165a24.7 24.7 0 0 1-.075-3.232c-.55.066-1.049.148-1.484.245-.625.14-1.068.303-1.336.462a.823.823 0 0 0-.199.15l-.003.21c0 .938.199 1.83.556 2.634.698-.208 1.565-.364 2.541-.469Zm-1.743 1.807c.542-.134 1.2-.241 1.946-.32.114.628.262 1.208.445 1.724.076.216.16.425.251.624a6.52 6.52 0 0 1-2.642-2.028Zm7.65-9.972a6.519 6.519 0 0 1 3.668 3.957 8.997 8.997 0 0 0-.881-.242 17.12 17.12 0 0 0-1.933-.304c-.134-1.148-.364-2.187-.695-3.035a6.834 6.834 0 0 0-.16-.376Zm-1.238.922c.249.637.44 1.444.566 2.372a36.666 36.666 0 0 0-1.832-.044c-.629 0-1.243.015-1.832.044.112-.83.278-1.566.491-2.17.213-.603.457-1.03.703-1.293.234-.251.443-.331.638-.331.344 0 .826.294 1.266 1.422Z" fill="#5C5F62"/><path d="M11.61 10.973a.5.5 0 0 0-.637.637l2.121 6.01a.5.5 0 0 0 .871.135l1.172-1.558 1.038 1.038a.5.5 0 0 0 .707 0l.353-.354a.5.5 0 0 0 0-.707l-1.037-1.037 1.558-1.172a.5.5 0 0 0-.135-.871l-6.01-2.121Z" fill="#5C5F62"/></svg>
